modules/hawcons-filled/icons/high-five.svg

<?xml version="1.0" encoding="UTF-8" standalone="no"?>
<svg width="32px" height="32px" viewBox="0 0 32 32" version="1.1" xmlns="http://www.w3.org/2000/svg" xmlns:xlink="http://www.w3.org/1999/xlink" xmlns:sketch="http://www.bohemiancoding.com/sketch/ns">
    <!-- Generator: Sketch 3.0.3 (7891) - http://www.bohemiancoding.com/sketch -->
    <title>icon 3 high five</title>
    <desc>Created with Sketch.</desc>
    <defs></defs>
    <g id="Page-1" stroke="none" stroke-width="1" fill="none" fill-rule="evenodd" sketch:type="MSPage">
        <g id="icon-3-high-five" sketch:type="MSArtboardGroup" fill="#929292">
            <path d="M19.9672438,10.2600561 L19.9672438,6.50370994 C19.9672438,5.66197696 20.6388167,5 21.4672438,5 C22.3014466,5 22.9672438,5.67323387 22.9672438,6.50370994 L22.9672438,13.4325233 L22.9672438,16 L23.9672438,16 L23.9672438,13.7497253 L23.9672438,13.7497253 L23.9672438,9.4912653 C23.9672438,8.66254437 24.6388167,8 25.4672438,8 C26.3014466,8 26.9672438,8.66766222 26.9672438,9.4912653 L26.9672438,18.2543674 L26.9672438,21.5 C26.9672438,25.6421358 23.6093796,29 19.4672438,29 C19.4668235,29 19.4664032,29 19.465983,28.9999999 C15.7075287,28.9995418 13.4772396,26.9488875 11.7146193,23.9830936 C7.8026058,17.4007216 5.15863848,14.3868641 6.24580826,13.2938232 C7.34561107,12.1880811 9.9609963,14.5499826 11.9672438,16.7334037 L11.9672438,6.50863659 C11.9672438,5.66642015 12.6388167,5 13.4672438,5 C14.3014466,5 14.9672438,5.67543961 14.9672438,6.50863659 L14.9672438,13.5 L14.9672438,13.5 L14.9672438,16 L15.9672438,16 L15.9672438,13.4325233 L15.9672438,4.49089813 C15.9672438,3.67622006 16.6388167,3 17.4672438,3 C18.3014466,3 18.9672438,3.66749783 18.9672438,4.49089813 L18.9672438,10.0082011 L18.9672438,15 L19.9672438,15 L19.9672438,10.2600561 L19.9672438,10.2600561 Z" id="high-five" sketch:type="MSShapeGroup"></path>
        </g>
    </g>
</svg>

<svg width="32" height="32" viewBox="0 0 32 32" xmlns="http://www.w3.org/2000/svg"><path d="M19.967 10.26V6.504c0-.842.672-1.504 1.5-1.504.834 0 1.5.673 1.5 1.504V16h1V9.491c0-.828.672-1.491 1.5-1.491.834 0 1.5.668 1.5 1.491V21.5a7.5 7.5 0 0 1-7.5 7.5h-.001c-3.758 0-5.989-2.051-7.751-5.017-3.912-6.582-6.556-9.596-5.47-10.69 1.1-1.105 3.716 1.257 5.722 3.44V6.51a1.5 1.5 0 0 1 3 0V16h1V4.491a1.501 1.501 0 0 1 3 0V15h1v-4.74z" fill="#929292" fill-rule="evenodd"/></svg>
